assets/image/facebook--oncard.svg

<svg width="43" height="43" viewBox="0 0 43 43" fill="none" xmlns="http://www.w3.org/2000/svg">
<rect width="42" height="42" transform="translate(0.499939 0.5)" fill="#5DCBE6"/>
<path d="M26.1538 22.75L26.7093 19.1305H23.2363V16.7816C23.2363 15.7914 23.7214 14.8262 25.2769 14.8262H26.8558V11.7445C26.8558 11.7445 25.423 11.5 24.0531 11.5C21.1929 11.5 19.3234 13.2336 19.3234 16.3719V19.1305H16.1441V22.75H19.3234V31.5H23.2363V22.75H26.1538Z" fill="white"/>
</svg>

<svg xmlns="http://www.w3.org/2000/svg" width="43" height="43" fill="none"><path fill="#5DCBE6" d="M.5.5h42v42H.5z"/><path fill="#fff" d="m26.154 22.75.555-3.62h-3.473v-2.348c0-.99.485-1.956 2.04-1.956h1.58v-3.082s-1.433-.244-2.803-.244c-2.86 0-4.73 1.734-4.73 4.872v2.759h-3.179v3.619h3.18v8.75h3.912v-8.75h2.918Z"/></svg>
